X: 40013
T: Three Ribbons
R: waltz
M: 3/4
K: Bminor
F/|:"bm" Bc>d "A" cA>e|"Gmaj" fed "f#m" c/B/A>c|
"bm" dcB "f#m" AF>A|1 "bm" B/c/B "A" A "bm" B2z/F/:|2 "bm" B/c/B "A" A "bm" B2z||
"D" a>fd a>fd|"bm" def "G" d2z/e/|"D" fed "A" c/B/A>c|"bm" d/e/c "D" A "bm" B2z|
"D" a>fd a>fd|"bm" baf "G" d2z/e/|"D" fed "A" c/B/A>c|"bm" d/e/c "D" A "bm" B2B/z/||

